packages/sources/icons/src/vitamix/shopping-cart-fill.svg

<svg width="16" height="16" viewBox="0 0 16 16" fill="none" xmlns="http://www.w3.org/2000/svg">
<path fill-rule="evenodd" clip-rule="evenodd" d="M3.31041 1.82648C3.23304 1.53857 2.97094 1.33331 2.66667 1.33331H0.666672V2.66665H2.094L3.32068 10.7662L3.33609 10.8398C3.41345 11.1277 3.67556 11.333 3.97982 11.333H12.6696L12.7468 11.3285C13.0259 11.2962 13.2585 11.0904 13.3205 10.8106L14.6509 4.80881L14.6635 4.7311C14.7031 4.34476 14.3997 3.99786 14 3.99786L3.64401 3.99798L3.32581 1.9001L3.31041 1.82648ZM5.33334 15.3333C4.59696 15.3333 4.00001 14.7364 4.00001 14C4.00001 13.2636 4.59696 12.6666 5.33334 12.6666C6.06972 12.6666 6.66667 13.2636 6.66667 14C6.66667 14.7364 6.06972 15.3333 5.33334 15.3333ZM11.3333 15.3333C10.597 15.3333 10 14.7364 10 14C10 13.2636 10.597 12.6666 11.3333 12.6666C12.0697 12.6666 12.6667 13.2636 12.6667 14C12.6667 14.7364 12.0697 15.3333 11.3333 15.3333Z" fill="#001018"/>
</svg>

<svg width="16" height="16" fill="none" xmlns="http://www.w3.org/2000/svg"><path fill-rule="evenodd" clip-rule="evenodd" d="M3.31 1.826a.667.667 0 0 0-.643-.493h-2v1.334h1.427l1.227 8.1.015.073c.077.288.34.493.644.493h8.69l.077-.005a.667.667 0 0 0 .573-.517l1.33-6.002.014-.078A.667.667 0 0 0 14 3.998H3.644L3.326 1.9l-.016-.074zm2.023 13.507a1.333 1.333 0 1 1 0-2.666 1.333 1.333 0 0 1 0 2.666zm6 0a1.333 1.333 0 1 1 0-2.666 1.333 1.333 0 0 1 0 2.666z" fill="#001018"/></svg>
